packages/foundations/assets/icons/functional/images/maps/station_32.svg

<svg width="32" height="32" viewBox="0 0 32 32" fill="none" xmlns="http://www.w3.org/2000/svg">
<g clip-path="url(#clip0_186_120)">
<path fill-rule="evenodd" clip-rule="evenodd" d="M16 2C23.732 2 30 8.26801 30 16C30 23.732 23.732 30 16 30C8.26801 30 2 23.732 2 16C2 8.26801 8.26801 2 16 2ZM16 4C9.37258 4 4 9.37258 4 16C4 22.6274 9.37258 28 16 28C22.6274 28 28 22.6274 28 16C28 9.37258 22.6274 4 16 4ZM20.59 8.46C21.3697 8.46 22.09 9.10192 22.09 9.96C22.09 11.7431 22.09 15.5897 22.09 21.5C22.09 22.3284 21.4184 23 20.59 23C19.8103 23 19.09 22.3534 19.09 21.5C19.09 20.9951 19.09 19.3884 19.09 16.68H12.91L12.91 21.5C12.91 22.3284 12.2384 23 11.41 23C10.6303 23 9.91 22.36 9.91 21.5C9.91 20.7943 9.91 16.9476 9.91 9.96C9.91 9.1803 10.5756 8.46 11.41 8.46C12.2444 8.46 12.91 9.25184 12.91 9.96C12.91 11.2503 12.91 12.737 12.91 14.42H19.09L19.09 9.96C19.09 9.13157 19.7616 8.46 20.59 8.46Z" fill="#1A1C1F"/>
</g>
<defs>
<clipPath id="clip0_186_120">
<rect width="32" height="32" fill="white"/>
</clipPath>
</defs>
</svg>

<svg xmlns="http://www.w3.org/2000/svg" width="32" height="32" fill="none"><g clip-path="url(#a)"><path fill="#1A1C1F" fill-rule="evenodd" d="M16 2c7.732 0 14 6.268 14 14s-6.268 14-14 14S2 23.732 2 16 8.268 2 16 2m0 2C9.373 4 4 9.373 4 16s5.373 12 12 12 12-5.373 12-12S22.627 4 16 4m4.59 4.46c.78 0 1.5.642 1.5 1.5V21.5a1.5 1.5 0 0 1-1.5 1.5c-.78 0-1.5-.647-1.5-1.5v-4.82h-6.18v4.82a1.5 1.5 0 0 1-1.5 1.5c-.78 0-1.5-.64-1.5-1.5V9.96c0-.78.666-1.5 1.5-1.5s1.5.792 1.5 1.5v4.46h6.18V9.96a1.5 1.5 0 0 1 1.5-1.5" clip-rule="evenodd"/></g><defs><clipPath id="a"><path fill="#fff" d="M0 0h32v32H0z"/></clipPath></defs></svg>
